!!!COM: Bach, Johann Sebastian
!!!OTA: Das wohltemperirte Clavier
!!!OPR: Das wohltemperierte Klavier
!!!OTL: Fuga 24, Vol. 1
!!!XEN: The Well-Tempered Clavier, Volume 1, Fugue 24.
!!!ONB: B minor, 4-part
!!!SCT: BWV 869b
!!!YEC: Copyright 1994, David Huron
!!!YEM: Rights to all derivative electronic formats reserved.
!!!RNB: The texture increases to five voices in the final two measures.
**kern	**kern	**kern	**kern
*staff2	*staff2	*staff1	*staff1
*clefF4	*clefF4	*clefG2	*clefG2
*k[f#c#]	*k[f#c#]	*k[f#c#]	*k[f#c#]
*M4/4	*M4/4	*M4/4	*M4/4
*b:	*b:	*b:	*b:
*MM58	*MM58	*MM58	*MM58
=1	=1	=1	=1
1r	1r	8r	1r
.	.	8f#	.
.	.	8d	.
.	.	8B	.
.	.	{8g	.
.	.	8f#}	.
.	.	{8b	.
.	.	8a#}	.
=2	=2	=2	=2
1r	1r	{8e	1r
.	.	8d#}	.
.	.	{8ccn	.
.	.	8b}	.
.	.	{8f#	.
.	.	8e#}	.
.	.	{8ddn	.
.	.	8cc#}	.
=3	=3	=3	=3
1r	1r	8b#	1r
.	.	8cc#	.
.	.	8a	.
.	.	8f#	.
.	.	2g#T	.
=4	=4	=4	=4
1r	8r	8.f#	1r
.	8B	.	.
.	.	16e#	.
.	8A	16f#	.
.	.	16g#	.
.	8F#	16a	.
.	.	16cc#	.
.	{8d	16b	.
.	.	16g#	.
.	8B}	16a	.
.	.	16ccn	.
.	{8en	4ff#	.
.	8d#}	.	.
=5	=5	=5	=5
1r	{8A	4ee	1r
.	8G#}	.	.
.	{8fn	4dd	.
.	8e}	.	.
.	{8B	4cc#	.
.	8A#}	.	.
.	{8gn	[4b	.
.	8f#}	.	.
=6	=6	=6	=6
1r	8e#	8b]	1r
.	8f#	8a#	.
.	8d	[4b	.
.	8B	.	.
.	2c#	16b]	.
.	.	16cc#	.
.	.	16dd	.
.	.	16een	.
.	.	16ff#	.
.	.	16gg	.
.	.	16b	.
.	.	16a#	.
=7	=7	=7	=7
1r	16B	[2dd	1r
.	16f#	.	.
.	16g#	.	.
.	16a#	.	.
.	16b	.	.
.	16cc#	.	.
.	16f#	.	.
.	16e#	.	.
.	[2an	8dd]	.
.	.	8ccn	.
.	.	8b	.
.	.	8dd#	.
=8	=8	=8	=8
1r	8a]	[2ee	1r
.	8g	.	.
.	8f#	.	.
.	8a#	.	.
.	[2b	8ee]	.
.	.	8dd	.
.	.	8cc#	.
.	.	8ee#	.
=9	=9	=9	=9
8r	8b]	8.ff#	1r
8F#	8a#	.	.
.	.	16gg	.
8D	4b	16ff#	.
.	.	16ee	.
8BB	.	16dd	.
.	.	16b	.
{8G	4r	16cc#	.
.	.	16ee	.
8F#}	.	16dd	.
.	.	16b	.
{8B	4cc#	8f#	.
8A#}	.	[8ff#	.
=10	=10	=10	=10
{8E	4b	8.ff#]	1r
8D#}	.	.	.
.	.	16gg	.
{8cn	4a	16ff#	.
.	.	16ee	.
8B}	.	16dd#	.
.	.	16cc#	.
8F#	4g#	16b	.
.	.	32cc#	.
.	.	32ddn	.
8E#	.	[8cc#	.
8dn	[4f#	16cc#]	.
.	.	16b	.
8c#	.	16a	.
.	.	16dd	.
=11	=11	=11	=11
8B#	8f#]	4g#	1r
8c#	8e#	.	.
8A	[4f#	4a	.
8F#	.	.	.
2G#	16f#]	[2b	.
.	16g#	.	.
.	16a	.	.
.	16b	.	.
.	16cc#	.	.
.	16dd	.	.
.	16f#	.	.
.	16e#	.	.
=12	=12	=12	=12
16F#	[2f#	4b]	1r
16F#	.	.	.
16Gn	.	.	.
16A	.	.	.
16B	.	4a	.
16cn	.	.	.
16E	.	.	.
16D#	.	.	.
16E	4f#]	2g	.
16F#	.	.	.
16G	.	.	.
16E	.	.	.
16A#	[4e	.	.
16B	.	.	.
16Dn	.	.	.
16C#	.	.	.
=13	=13	=13	=13
8D	8.e]	2f#	8r
8BB	.	.	8b
.	16d	.	.
2F#	16c#	.	8a
.	16B	.	.
.	16A	.	8f#
.	16F#	.	.
.	16G#	8e#	8dd
.	16B	.	.
.	16A	8f#	8cc#
.	16F#	.	.
4F#	8cn	8r	8een
.	16B	8dd#	8dd#
.	16A	.	.
=14	=14	=14	=14
4E	2B	8dd#	8a
.	.	8ee	8g#
4D	.	4r	8ffn
.	.	.	8ee
4C#	4E	8r	8b
.	.	8ee	8a#
[4BB	8B	16ddn	8ggn
.	.	16cc#	.
.	8A	16dd	8ff#
.	.	16b	.
=15	=15	=15	=15
8BB]	8G#	4cc#	8ee#
8AA#	8F#	.	8ff#
[4BB	8f#	8b	8dd
.	8d	8f#	8b
16BB]	[2e	[2gn	[2cc#
16C#	.	.	.
16D	.	.	.
16E	.	.	.
16F#	.	.	.
16Gn	.	.	.
16BB	.	.	.
16AA#	.	.	.
=16	=16	=16	=16
[2D	8e]	8g]	16cc#]
.	.	.	16cc#
.	8c#	[8c#	16dd
.	.	.	16ee
.	8A#	4c#]	16ff#
.	.	.	16gg
.	8F#	.	16b
.	.	.	16a#
16D]	2d	4f#	[2b
16AA#	.	.	.
16BB	.	.	.
16C#	.	.	.
16D	.	[4g#	.
16E	.	.	.
16FF#	.	.	.
16EE#	.	.	.
=17	=17	=17	=17
4FF#	[2c#	4g#]	16b]
.	.	.	16e#
.	.	.	16f#
.	.	.	16g#
8F#	.	8f#	16a
.	.	.	16b
8A	.	8r	16cc#
.	.	.	16f#
8B	8c#]	2r	16dd
.	.	.	16een
8D	16B	.	[8ff#
.	16A	.	.
8E	16G#	.	8ff#]
.	16A	.	.
8G#	[8B	.	16ee
.	.	.	16dd
=18	=18	=18	=18
8A	8B]	1r	16cc#
.	.	.	16dd
8C#	16A	.	[8ee
.	16G#	.	.
8D	16F#	.	8ee]
.	16G#	.	.
8F#	[8A	.	16dd
.	.	.	16cc#
8G#	8A]	.	16b
.	.	.	16cc#
8BB	16G#	.	[8dd
.	16F#	.	.
8C#	16E#	.	8dd]
.	16F#	.	.
8E#	8G#	.	16cc#
.	.	.	16b
=19	=19	=19	=19
8F#	16F#	8r	4a
.	16b	.	.
8AA	[8cc#	8f#	.
8BB	8cc#]	8d	8r
8D	16b	8B	[8ff#
.	16a	.	.
8E	16g	2r	8ff#]
.	16a	.	.
8GG	[8b	.	16ee
.	.	.	16dd
8AA	8b]	.	16cc#
.	.	.	16dd
8C#	16a	.	[8ee
.	16g	.	.
=20	=20	=20	=20
8D	16f#	1r	8ee]
.	16g	.	.
8FF#	[8a	.	16dd
.	.	.	16cc#
8GG	8a]	.	16b
.	.	.	16cc#
8BB	16g	.	[8dd
.	16f#	.	.
8C#	16e	.	8dd]
.	16f#	.	.
8EE	[8g	.	16cc#
.	.	.	16b
8FF#	8g]	.	16a#
.	.	.	16b
8AA#	16f#	.	[8cc#
.	16e	.	.
=21	=21	=21	=21
[4BB	4d	8r	8cc#]
.	.	8f#	16b
.	.	.	16a#
16BB]	4r	8d	[4b
16C#	.	.	.
16D	.	8B	.
16F#	.	.	.
16E	2r	8g	16b]
16C#	.	.	16a#
16D	.	8f#	16b
16F#	.	.	16dd
16G	.	8b	4cc#
16E	.	.	.
16F#	.	8a#	.
16A#	.	.	.
=22	=22	=22	=22
16B	1r	8e	4b
16G	.	.	.
16F#	.	8d#	.
16E	.	.	.
8.D#	.	8ccn	4an
.	.	8b	.
16C#	.	.	.
16Dn	.	8f#	4g#
16E	.	.	.
16D	.	8e#	.
16C#	.	.	.
16BB	.	8ddn	[4f#
16AA	.	.	.
16GG#	.	8cc#	.
16FF#	.	.	.
=23	=23	=23	=23
16GG#	1r	8b#	8f#]
16BB	.	.	.
16AA	.	8cc#	8e#
16GG#	.	.	.
16FF#	.	8a	[4f#
16AA	.	.	.
16D	.	8f#	.
16C#	.	.	.
8BB	.	2g#	16f#]
.	.	.	16g#
8GG#	.	.	16a
.	.	.	16bn
8C#	.	.	16cc#
.	.	.	16dd
8CC#	.	.	16f#
.	.	.	16e#
=24	=24	=24	=24
16F#	1r	[2a	4f#
16Gn	.	.	.
16A	.	.	.
16B	.	.	.
16cn	.	.	[4ff#
16d	.	.	.
16E	.	.	.
16D#	.	.	.
[2G	.	8a]	8ff#]
.	.	8ccn	8ee
.	.	8b	8dd#
.	.	8dd#	8ff#
=25	=25	=25	=25
16G]	1r	[2ee	[2gg
16BB	.	.	.
16C#	.	.	.
16Dn	.	.	.
16E	.	.	.
16F#	.	.	.
16BB	.	.	.
16AA#	.	.	.
[2BB	.	8ee]	8gg]
.	.	8ddn	8ff#
.	.	8cc#	8ee#
.	.	8ee#	8gg#
=26	=26	=26	=26
8BB]	1r	4ff#	8cc#
8AA#	.	.	16dd
.	.	.	16een
8BB	.	8r	16dd
.	.	.	16ee
8D	.	16b	[8ff#
.	.	16a	.
8E	.	16g	8ff#]
.	.	16a	.
8GG	.	[8b	16ee
.	.	.	16dd
8AAn	.	8b]	16cc#
.	.	.	16dd
8C#	.	16a	[8ee
.	.	16g	.
=27	=27	=27	=27
8D	1r	16f#	8ee]
.	.	16g	.
8FF#	.	[8a	16dd
.	.	.	16cc#
8GG	.	8a]	16b
.	.	.	16cc#
8BB	.	16g	[8dd
.	.	16f#	.
8C#	.	16e	8dd]
.	.	16f#	.
8EE	.	[8g	16cc#
.	.	.	16b
8FF#	.	8g]	16a#
.	.	.	16b
8AA#	.	16f#	[8cc#
.	.	16e	.
=28	=28	=28	=28
8BB	8r	16d	8cc#]
.	.	16e	.
8D	8B	[8f#	8b
8E	8G	8f#]	8r
8G	8E	16e	[8bb
.	.	16d	.
8A	2r	16cn	8bb]
.	.	16d	.
8cn	.	[8e	16aa
.	.	.	16gg
8d	.	8e]	16ff#
.	.	.	16gg
8F#	.	16d	[8aa
.	.	16c	.
=29	=29	=29	=29
8G	1r	16B	8aa]
.	.	16cn	.
8B	.	[8d	16gg
.	.	.	16ff#
8cn	.	8d]	16ee
.	.	.	16ff#
8E	.	16c	[8gg
.	.	16B	.
8F#	.	16A	8gg]
.	.	16B	.
8A	.	[8c	16ff#
.	.	.	16ee
8B	.	8c]	16dd#
.	.	.	16ee
8D#	.	16B	[8ff#
.	.	16A	.
=30	=30	=30	=30
4E	8r	4G	8ff#]
.	8B	.	16ee
.	.	.	16dd#
4r	8G	8r	16ee
.	.	.	16ff#
.	8E	{16e	16gg
.	.	16d#}	16bb
2r	8cn	{16d#	8aa
.	.	16e	.
.	8B	16f#	8gg
.	.	16g}	.
.	8e	16a	4ff#
.	.	16g	.
.	8d#	16a	.
.	.	16b	.
=31	=31	=31	=31
1r	8A	16ccn	4ee
.	.	16a	.
.	8G#	[8b	.
.	8fn	16b]	4dd
.	.	16a	.
.	8e	16g#	.
.	.	16f#	.
.	8B	16e	4cc#
.	.	16gn	.
.	8A#	16f#	.
.	.	16a#	.
.	8gn	[4b	16b
.	.	.	16cc#
.	8f#	.	16dd
.	.	.	16ee
=32	=32	=32	=32
1r	8e#	8b]	16dd
.	.	.	8.cc#
.	8f#	16b	.
.	.	16a#	.
.	8d	16r	[4b
.	.	16an	.
.	8B	16g	.
.	.	16f#	.
.	2c#	2e	16b]
.	.	.	16cc#
.	.	.	16dd
.	.	.	16ee
.	.	.	16ff#
.	.	.	16gg
.	.	.	16b
.	.	.	16a#
=33	=33	=33	=33
1r	2B	16r	2dd
.	.	16f#	.
.	.	16g#	.
.	.	16a#	.
.	.	16b	.
.	.	16cc#	.
.	.	16f#	.
.	.	16e#	.
.	16r	2an	4.cc#
.	16c#	.	.
.	16d#	.	.
.	16e#	.	.
.	16f#	.	.
.	16g#	.	.
.	16c#	.	8dd#
.	16B#	.	.
=34	=34	=34	=34
1r	16c#	8g#	4ee#
.	16Bn	.	.
.	16A	8cc#	.
.	16G#	.	.
.	16F#	8a	8r
.	16G#	.	.
.	16A	8f#	[8ff#
.	16c#	.	.
.	16B	8dd	16ff#]
.	16G#	.	16ee#
.	16A	8cc#	16ff#
.	16c#	.	16aa
.	16d	8ff#	4gg#
.	16B	.	.
.	16c#	8ee#	.
.	16e#	.	.
=35	=35	=35	=35
1r	16f#	8b	8r
.	16en	.	.
.	16d	8a#	8ff#
.	16c#	.	.
.	16B	8r	8dd
.	16c#	.	.
.	16d	[8b	8b
.	16f#	.	.
.	16e	16b]	8gg
.	16c#	16a#	.
.	16d	16b	8ff#
.	16f#	16dd	.
.	16g	[4cc#	8bb
.	16e	.	.
.	16f#	.	8aa#
.	16a#	.	.
=36	=36	=36	=36
1r	16b	8cc#]	8ee
.	16an	.	.
.	16g	8b	8dd#
.	16f#	.	.
.	16e	8ee	[4gg
.	16d	.	.
.	16e	8a#	.
.	16c#	.	.
.	[2d	[2b	16gg]
.	.	.	16ff#
.	.	.	16gg#
.	.	.	16aa#
.	.	.	16bb
.	.	.	16ccc#
.	.	.	16ff#
.	.	.	16ee#
=37	=37	=37	=37
1r	8d]	16b]	4ff#
.	.	16a#	.
.	8c#	16b	.
.	.	16cc#	.
.	8B	16dd	[4ffn
.	.	16ee	.
.	8d	16an	.
.	.	16g#	.
.	[2cn	[2an	16ff]
.	.	.	16ee
.	.	.	16ff#
.	.	.	16gg#
.	.	.	16aa
.	.	.	16bb
.	.	.	16ee
.	.	.	16dd#
=38	=38	=38	=38
8r	8c]	8a]	16ee
.	.	.	16f#
8E	8B	8gn	16gn
.	.	.	16a
8D	8r	4f#	16b
.	.	.	16cc#
8BB	[8B	.	16dd
.	.	.	16ff#
8G	16B]	2r	16ee
.	16A#	.	16cc#
8F#	16B	.	16dd
.	16d	.	16ff#
8B	4c#	.	16gg
.	.	.	16ee
8A#	.	.	16ff#
.	.	.	16aa#
=39	=39	=39	=39
8E	4F#	16r	4bb
.	.	16ff#	.
8D#	.	16aan	.
.	.	16gg	.
8cn	4r	16ff#	4aa
.	.	16ee	.
8B	.	16dd#	.
.	.	16cc#	.
8F#	2r	16b	4gg#
.	.	16ddn	.
8E#	.	16cc#	.
.	.	16b	.
8dn	.	16a	[4ff#
.	.	16g#	.
8c#	.	16a	.
.	.	16f#	.
=40	=40	=40	=40
8B#	1r	4g#	16ff#]
.	.	.	16ee#
8c#	.	.	16ff#
.	.	.	16ee#
8A	.	16r	[4ff#
.	.	16een	.
8F#	.	16dd	.
.	.	16cc#	.
2G#	.	16b	16ff#]
.	.	16a	16a
.	.	16g#	16b
.	.	16a	16cc#
.	.	[4b	16dd
.	.	.	16een
.	.	.	16f#
.	.	.	16e#
=41	=41	=41	=41
16F#	1r	8b]	8f#
16E	.	.	.
16D	.	8a#	8ff#
16C#	.	.	.
16BB	.	8r	8dd
16C#	.	.	.
16D	.	[8b	8b
16F#	.	.	.
16E	.	16b]	8gg
16C#	.	16a	.
16D	.	16b	8ff#
16F#	.	16dd	.
16G	.	4cc#	8bb
16E	.	.	.
16F#	.	.	8aa#
16A#	.	.	.
=42	=42	=42	=42
16B	1r	8r	8ee
16An	.	.	.
16G	.	8b	8dd#
16F#	.	.	.
16E	.	8g	8r
16F#	.	.	.
16G	.	8e	[8ee
16B	.	.	.
16A	.	8ccn	16ee]
16F#	.	.	16dd#
16G	.	8b	16ee
16B	.	.	16gg
16cn	.	8ee	4ff#
16A	.	.	.
16B	.	8dd#	.
16d#	.	.	.
=43	=43	=43	=43
8e	1r	8a	16ee
.	.	.	16ddn
8E	.	8g#	16cc#
.	.	.	16b
8C#	.	[4a	16a
.	.	.	16b
8AA	.	.	16cc#
.	.	.	16ee
8F#	.	8a]	16dd
.	.	.	16b
8E	.	8g#	16cc#
.	.	.	16ee
8A	.	8cc#	16ff#
.	.	.	16dd
8G#	.	8b	16ee
.	.	.	16gg#
=44	=44	=44	=44
8D	8r	8ee	16aa
.	.	.	16ggn
8C#	8A	8r	16ff#
.	.	.	16ee
[2.D	8F#	8r	16dd
.	.	.	16cc#
.	8D	8f#	16b
.	.	.	16a
.	8B	4d	16g
.	.	.	16e
.	8A	.	16f#
.	.	.	16a
.	8d	8r	16b
.	.	.	16g
.	8c#	8g	16a
.	.	.	16cc#
=45	=45	=45	=45
4D]	8G	8a	16dd
.	.	.	16ee
.	8F#	8dd	16dd
.	.	.	16ee
4r	8e-	4ccn	16ff#
.	.	.	16gg
.	8d	.	16aa
.	.	.	16ff#
2r	8A	4b	16dd
.	.	.	16ffn
.	8G#	.	16ee
.	.	.	16dd
.	8fn	[4a	16ccn
.	.	.	16b
.	8en	.	16cc
.	.	.	16dd
=46	=46	=46	=46
1r	8d#	8a]	16ccn
.	.	.	8.b
.	8e	16a	.
.	.	16g#	.
.	8c#	16a	[4a
.	.	16gn	.
.	8A	16f#	.
.	.	16e	.
.	[2B	16d	8a]
.	.	16c#	.
.	.	16B	16dd
.	.	16c#	16ee
.	.	4d	16ff#
.	.	.	16gg
.	.	.	16a
.	.	.	16g#
=47	=47	=47	=47
2r	8B]	4c#	16ee
.	.	.	16ff#
.	4A	.	16gn
.	.	.	16f#
.	.	4B	16dd
.	.	.	16ee
.	[8G	.	16f#
.	.	.	16e
8r	8G]	2A	16cc#
.	.	.	16b
8D	8F#	.	16cc#
.	.	.	16dd
8C#	8E	.	16ee
.	.	.	16ff#
8AA	8C#	.	16gg
.	.	.	16ee
=48	=48	=48	=48
8F#	16r	1r	2aa
.	16gg	.	.
8D	16ff#	.	.
.	16ee	.	.
8G	16dd	.	.
.	16ccn	.	.
8F#	16b	.	.
.	16cc	.	.
8Cn	16dd	.	4gg
.	16ee	.	.
8BB	16dd	.	.
.	16cc	.	.
8A	16b	.	4ffn
.	16cc#	.	.
8G#	16dd	.	.
.	16b	.	.
=49	=49	=49	=49
8D	16g	1r	4ee
.	16b-	.	.
8C#	16a	.	.
.	16g	.	.
8B-	16fn	.	[4dd
.	16e	.	.
8A	16f	.	.
.	16d	.	.
8G#	4e	.	16dd]
.	.	.	16cc#
8A	.	.	16dd
.	.	.	16cc#
8F#	16r	.	[4dd
.	16ccn	.	.
8D	16bn	.	.
.	16a	.	.
=50	=50	=50	=50
2E	16g	1r	16dd]
.	16f#	.	16ee
.	16e	.	16ff#
.	16d	.	16gg
.	16c#	.	16aa
.	16B	.	16bb
.	16A	.	16dd
.	16G	.	16cc#
4D	16F#	.	[2dd
.	16A	.	.
.	16B	.	.
.	16c#	.	.
8r	16d	.	.
.	16e	.	.
8BB	16A	.	.
.	16G#	.	.
=51	=51	=51	=51
4AA	2A	16r	4dd]
.	.	16e	.
.	.	16f#	.
.	.	16g	.
8r	.	16a	8cc#
.	.	16b	.
8F#	.	16e	[8ff#
.	.	16d#	.
4E	8B	[2g	16ff#]
.	.	.	16b
.	16A#	.	16cc#
.	16B	.	16ddn
8r	8c#	.	16ee
.	.	.	16ff#
8C#	8E	.	16b
.	.	.	16a#
=52	=52	=52	=52
16BB	8B	8g]	4dd
16FF#	.	.	.
16GG#	8r	8f#	.
16AA	.	.	.
16BB	4r	8e#	8cc#
16C#	.	.	.
16FF#	.	[8g#	8b
16EE#	.	.	.
[2AA	16r	16g#]	2cc#
.	16C#	16e#	.
.	16D#	16f#	.
.	16E#	16g#	.
.	16F#	16a	.
.	16G#	16b	.
.	16A	16d	.
.	16E#	16c#	.
=53	=53	=53	=53
4AA]	4F#	4d#	16r
.	.	.	16f#
.	.	.	16g#
.	.	.	16a
4GG#	4G#	8e#	16b
.	.	.	16cc#
.	.	[8g#	16f#
.	.	.	16e#
8FF#	8r	16g#]	4a
.	.	16g#	.
8r	8c#	16f#	.
.	.	16e#	.
4r	8A	16f#	4r
.	.	16g#	.
.	8F#	16a	.
.	.	16cc#	.
=54	=54	=54	=54
1r	8d	16b	4r
.	.	16g#	.
.	8c#	16a	.
.	.	16cc#	.
.	8f#	16b	4gg#
.	.	16dd	.
.	8e#	16cc#	.
.	.	16b	.
.	8B	16cc#	4ff#
.	.	16dd	.
.	8A#	16ee	.
.	.	16dd	.
.	8gn	16cc#	4ee
.	.	16b	.
.	8f#	16a#	.
.	.	16g#	.
=55	=55	=55	=55
1r	8c#	16f#	4dd#
.	.	16an	.
.	8B#	16g#	.
.	.	16b#	.
.	8a	16cc#	[4cc#
.	.	16dd#	.
.	8g#	16ee	.
.	.	16ff#	.
.	8f##	16ee	8cc#]
.	.	16dd#	.
.	8g#	16r	8b#
.	.	16an	.
.	8e	16g#	[4cc#
.	.	16bn	.
.	8c#	16a	.
.	.	16g#	.
=56	=56	=56	=56
1r	[2d#	2f#	16cc#]
.	.	.	16dd#
.	.	.	16ee
.	.	.	16ff#
.	.	.	16gg#
.	.	.	16aa
.	.	.	16cc#
.	.	.	16b#
.	16d#]	[2g#	[2ee
.	16G#	.	.
.	16A#	.	.
.	16B#	.	.
.	16c#	.	.
.	16d#	.	.
.	16F#	.	.
.	16E	.	.
=57	=57	=57	=57
2r	4F#	16g#]	16ee]
.	.	16c#	16ee
.	.	16d#	16ff#
.	.	16e	16gg#
.	4r	16f#	16aa
.	.	16g#	16bb
.	.	16a	16dd#
.	.	16b	16cc#
8r	2r	16a	4dd#
.	.	16f#	.
8BB	.	16g#	.
.	.	16a	.
8GG#	.	16b	4r
.	.	16cc#	.
8EE	.	16dd#	.
.	.	16ee	.
=58	=58	=58	=58
8C#	1r	16ff#	4r
.	.	16dd#	.
8BB	.	16ee	.
.	.	16gg#	.
8E	.	16ff#	4ff#
.	.	16cc#	.
8D#	.	16b	.
.	.	16a	.
8AA	.	16b	4ee
.	.	16cc#	.
8GG#	.	16ddn	.
.	.	16cc#	.
8Fn	.	16b	4dd
.	.	16a	.
8E	.	16g#	.
.	.	16f#	.
=59	=59	=59	=59
8BB	1r	16e	4cc#
.	.	16gn	.
8AA#	.	16f#	.
.	.	16e	.
8G	.	16d	[4b
.	.	16c#	.
8F#	.	16d	.
.	.	16B	.
8E#	.	4c#	16b]
.	.	.	16a#
8F#	.	.	16b
.	.	.	16a#
8D	.	16r	[4b
.	.	16an	.
8BB	.	16g	.
.	.	16f#	.
=60	=60	=60	=60
2C#	2r	4e	16b]
.	.	.	16cc#
.	.	.	16dd
.	.	.	16ee
.	.	8r	16ff#
.	.	.	16gg
.	.	[8cc#	16b
.	.	.	16a#
8BB	8r	16cc#]	[4dd
.	.	16cc#	.
8r	8f#	16b	.
.	.	16a#	.
4r	8d	4b	16dd]
.	.	.	16cc#
.	8B	.	16dd
.	.	.	16cc#
=61	=61	=61	=61
1r	8g	8cc#	16ee
.	.	.	16dd
.	8f#	8dd	16ff#
.	.	.	16ee
.	8b	16r	[4gg
.	.	16ee	.
.	8a#	16dd	.
.	.	16cc#	.
.	8e	16b	8.gg]
.	.	16a#	.
.	8d#	8b	.
.	.	.	16ff#
.	8ccn	16r	[4aan
.	.	16ff#	.
.	8b	16ee	.
.	.	16dd#	.
=62	=62	=62	=62
1r	8f#	16cc#	8.aa]
.	.	16b#	.
.	8e#	8cc#	.
.	.	.	16gg#
.	8ddn	16r	8bbn
.	.	8gg#	.
.	8cc#	.	8aa
.	.	[16ff#	.
.	8b#	16ff#]	[4gg#
.	.	16ff#	.
.	8cc#	16ee#	.
.	.	16gg#	.
.	8a	8.cc#	16gg#]
.	.	.	16ee#
.	8f#	.	[8ff#
.	.	16dd	.
=63	=63	=63	=63
1r	[2g#	2b	16ff#]
.	.	.	16ff#
.	.	.	16gg#
.	.	.	16aa
.	.	.	16bb
.	.	.	16ccc#
.	.	.	16ff#
.	.	.	16ee#
.	16g#]	[2cc#	[2aa
.	16c#	.	.
.	16d#	.	.
.	16e#	.	.
.	16f#	.	.
.	16g#	.	.
.	16B	.	.
.	16A	.	.
=64	=64	=64	=64
1r	1B	16cc#]	2aa_
.	.	16f#	.
.	.	16gn	.
.	.	16a	.
.	.	16b	.
.	.	16ccn	.
.	.	16e	.
.	.	16d#	.
.	.	[2e	16aa]
.	.	.	16ff#
.	.	.	16gg
.	.	.	16aa
.	.	.	16bb
.	.	.	16cccn
.	.	.	16ff#
.	.	.	16ee
=65	=65	=65	=65
1r	8A#	16e]	[4ff#
.	.	16e	.
.	8F#	16dn	.
.	.	16c#	.
.	8B	8d	16ff#]
.	.	.	16ff#
.	8d	8r	16dd
.	.	.	16b
.	8e	8r	16gg
.	.	.	16aa
.	8g	16ee	[8bb
.	.	16dd	.
.	8a	16cc#	8bb]
.	.	16dd	.
.	8c#	[8ee	16aa
.	.	.	16gg
=66	=66	=66	=66
1r	8d	8ee]	16ff#
.	.	.	16gg
.	8f#	16dd	[8aa
.	.	16cc#	.
.	8g	16b	8aa]
.	.	16cc#	.
.	8B	[8dd	16gg
.	.	.	16ff#
.	8c#	8dd]	16ee
.	.	.	16ff#
.	8e	16cc#	[8gg
.	.	16b	.
.	8f#	16a#	8gg]
.	.	16b	.
.	8A#	8cc#	16ff#
.	.	.	16ee
=67	=67	=67	=67
1r	16B	4cc#	[4dd
.	16F#	.	.
.	16G	.	.
.	16An	.	.
.	16B	8b	16dd]
.	16cn	.	16ee
.	16E	8a	[8ff#
.	16D#	.	.
.	8E	16g	8ff#]
.	.	16a	.
.	8G	[8b	16ee
.	.	.	16dd
.	8A	8b]	16cc#
.	.	.	16dd
.	8c#	16a	[8ee
.	.	16g	.
=68	=68	=68	=68
1r	8d	16f#	8ee]
.	.	16g	.
.	8F#	[8a	16dd
.	.	.	16cc#
.	8G	8a]	16b
.	.	.	16cc#
.	8B	16g	[8dd
.	.	16f#	.
.	8c#	16e	8dd]
.	.	16f#	.
.	8E	[8g	16cc#
.	.	.	16b
.	8F#	8g]	16a#
.	.	.	16b
.	8A#	16f#	[8cc#
.	.	16e	.
=69	=69	=69	=69
1r	8B	4d	16cc#]
.	.	.	16f#
.	8F#	.	16g#
.	.	.	16a#
.	8D	[4b	16b
.	.	.	16cc#
.	8BB	.	16dd
.	.	.	16ff#
.	8G	8b]	16ee
.	.	.	16cc#
.	8F#	8a#	16dd
.	.	.	16ff#
.	8B	8dd	16ggn
.	.	.	16ee
.	8A#	8cc#	16ff#
.	.	.	16aa#
=70	=70	=70	=70
8r	8E	8ff#	16bb
.	.	.	16aan
8BB	8D#	8r	16gg
.	.	.	16ff#
8GG	2E	4r	16ee
.	.	.	16dd
8EE	.	.	16ccn
.	.	.	16b
8Cn	.	4r	16a
.	.	.	16f#
8BB	.	.	16g
.	.	.	16b
8E	4F#	8r	16ccn
.	.	.	16a
8D#	.	[8b	16b
.	.	.	16dd#
=71	=71	=71	=71
8AA	4E	16b]	4ee
.	.	16cc#	.
8GG#	.	16b	.
.	.	16a	.
8Fn	16r	4g#	4ddn
.	16B	.	.
8E	16c#	.	.
.	16d	.	.
8BB	8.e	16r	4cc#
.	.	16gn	.
8AA#	.	[8f#	.
.	16e	.	.
8Gn	16d	16f#]	[4b
.	16c#	16e	.
8F#	16B	16d	.
.	16An	16e	.
=72	=72	=72	=72
8E#	8G#	4c#	16b]
.	.	.	16a#
8F#	[8F#	.	16b
.	.	.	16a#
8D	16F#]	16r	[4b
.	16An	16f#	.
8BB	16Gn	16e	.
.	16F#	16d	.
2C#	2En	2c#	16b]
.	.	.	16cc#
.	.	.	16dd
.	.	.	16ee
.	.	.	16ff#
.	.	.	16gg
.	.	.	16b
.	.	.	16a#
=73	=73	=73	=73
4D	4F#	4B	16b
.	.	.	16dd
.	.	.	16ee
.	.	.	16ff#
8r	8r	8r	16gg
.	.	.	16aa
8D#	8A	8f#	16ccn
.	.	.	16b
4E	4G	4e	16cc
.	.	.	16ee
.	.	.	16ff#
.	.	.	16gg
8r	8r	4r	16aa#
.	.	.	16bb
8E#	8B	.	16dd
.	.	.	16cc#
=74	=74	=74	=74
[1F#	16A#	8r	2dd
.	16F#	.	.
.	16G#	8f#	.
.	16A#	.	.
.	16B	8d	.
.	16c#	.	.
.	16d	8B	.
.	[16B	.	.
.	16B]	8g	[2cc#
.	16B	.	.
.	16A#	8f#	.
.	16B	.	.
.	16c#	8b	.
.	16d	.	.
.	16e	8a#	.
.	16c#	.	.
=75	=75	=75	=75
!! Five-voice material to the end:
*	*	*^	*
16F#]	2r	4f#	8e	4cc#
16AA#	.	.	.	.
16BB	.	.	8d#	.
16C#	.	.	.	.
16D#	.	8r	8r	16ccn
16E	.	.	.	16a#
16FF#	.	8dn	8g#	[8b
16EE#	.	.	.	.
2FF#	16r	2c#	8f#	4b]
.	16BB	.	.	.
.	16C#	.	8e#	.
.	16Dn	.	.	.
.	16En	.	8.f#	4a#
.	16C#	.	.	.
.	[8F#	.	.	.
.	.	.	16en	.
=76	=76	=76	=76	=76
1BB;	1F#;]	1B;	1d#;	1b;
==	==	==	==	==
*-	*-	*-	*-	*-
!!!CDT: 1685/3/-1750/7/28
!!!OCY: Deutschland
!!!PPP: Coethen; Cothen; Co2then
!!!ODT: <1722//
!!!PDT: 1722
!!!AFR: fuga; fugue
!!!AST: polyphony
!!!AMT: simple quadruple
!!!SCA: Bach-Werke-Verzeichnis
!!!YOR: Bach Gesellschaft
!!!SMS: British Library, various
!!!AIN: cemba; clavi
!!!EEV: 1.0
!!!RDT: 1986 November 25
!!!YER: 1994 August 10
!!!EFL: 24/48
!!!VTS: 2558859356
